!!!!SEGMENT: pl-wtm--r-258-m--008_moniuszko-stanislaw--msza-agnus.krn
!!!cenid: 18xx:2542
!!!COM: Moniuszko, Stanisław
!!!COM-rismid: pe30008351
!!!CDT: 1819/05/05-1872/06/04
!!!CNT: Polish
!!!OPR: Msza
!!!OTL: Agnus
!!!OMV: 008
!!!PDT: 1870
!!!AGN: Sacred; Mass
!!!SMS-siglum: PL-Wtm
!!!SMS-shelfmark: R 258/M
!!!SMS-shelfwork: 001-008 M
!!!SMS-variant:
!!!SMS-altvar:
!!!NIFC-rismid: 1001095348
!!!URL-scan: http://repozytorium.nifc.pl/skany/pl-wtm-nut--r258m
!!!ONB-nifc: UWAGA: części Mszy: 1. Kyrie, 2. Et in terra, 3. Graduale, 4. Credo, 5. Offertorium,
!!!key:
**kern	**kern	**dynam	**kern	**text	**dynam	**kern	**text	**dynam	**kern	**text	**dynam	**kern	**text	**text	**dynam
*	*	*	*group1	*	*	*group1	*	*	*group1	*	*	*group1	*	*	*
*part5	*part5	*part5	*part4	*part4	*part4	*part3	*part3	*part3	*part2	*part2	*part2	*part1	*part1	*part1	*part1
*staff6	*staff5	*	*staff4	*staff4	*	*staff3	*staff3	*	*staff2	*staff2	*	*staff1	*staff1	*staff1	*
*Iorgan	*Iorgan	*	*Iempty	*	*	*Itenor	*	*	*Ialto	*	*	*Isoprn	*	*	*
*I"[Organo]	*I"[Organo]	*	*I"[Basso]	*	*	*I"[Tenore]	*	*	*I"[Alto]	*	*	*I"[Soprano]	*	*	*
*I'org	*I'[Organo]	*	*I'B	*	*	*I'T	*	*	*I'A	*	*	*I'S	*	*	*
*clefF4	*clefG2	*	*clefF4	*	*	*clefG2	*	*	*clefG2	*	*	*clefG2	*	*	*
*	*	*	*	*	*	*ITrd7c12	*	*	*	*	*	*	*	*	*
*k[b-e-a-]	*k[b-e-a-]	*	*k[b-e-a-]	*	*	*k[b-e-a-]	*	*	*k[b-e-a-]	*	*	*k[b-e-a-]	*	*	*
*E-:	*E-:	*	*E-:	*	*	*E-:	*	*	*E-:	*	*	*E-:	*	*	*
*M3/4	*M3/4	*	*M3/4	*	*	*M3/4	*	*	*M3/4	*	*	*M3/4	*	*	*
*all\right	*all\right	*	*all\right	*	*	*all\right	*	*	*all\right	*	*	*all\right	*	*	*
*2\right	*2\right	*	*2\right	*	*	*2\right	*	*	*2\right	*	*	*2\right	*	*	*
=1	=1	=1	=1	=1	=1	=1	=1	=1	=1	=1	=1	=1	=1	=1	=1
2.r	8r	.	2.r	.	.	2.r	.	.	2.r	.	.	2.r	.	.	.
.	(8g/L	p	.	.	.	.	.	.	.	.	.	.	.	.	.
.	8a-/	.	.	.	.	.	.	.	.	.	.	.	.	.	.
.	8g/	.	.	.	.	.	.	.	.	.	.	.	.	.	.
.	8en/	.	.	.	.	.	.	.	.	.	.	.	.	.	.
.	8f/J	.	.	.	.	.	.	.	.	.	.	.	.	.	.
=2	=2	=2	=2	=2	=2	=2	=2	=2	=2	=2	=2	=2	=2	=2	=2
2.r	8dd/L	.	2.r	.	.	2.r	.	.	2.r	.	.	2.r	.	.	.
.	8cc/	.	.	.	.	.	.	.	.	.	.	.	.	.	.
.	8bn/	.	.	.	.	.	.	.	.	.	.	.	.	.	.
.	8dd/	.	.	.	.	.	.	.	.	.	.	.	.	.	.
.	8ff/	.	.	.	.	.	.	.	.	.	.	.	.	.	.
.	8ee-/J	.	.	.	.	.	.	.	.	.	.	.	.	.	.
=3	=3	=3	=3	=3	=3	=3	=3	=3	=3	=3	=3	=3	=3	=3	=3
2.r	8dd/L	.	2.r	.	.	2.r	.	.	2.r	.	.	2.r	.	.	.
.	8cc/	.	.	.	.	.	.	.	.	.	.	.	.	.	.
.	8bn/	.	.	.	.	.	.	.	.	.	.	.	.	.	.
.	8dd/	.	.	.	.	.	.	.	.	.	.	.	.	.	.
.	8f/	.	.	.	.	.	.	.	.	.	.	.	.	.	.
.	8a-/J)	.	.	.	.	.	.	.	.	.	.	.	.	.	.
=4	=4	=4	=4	=4	=4	=4	=4	=4	=4	=4	=4	=4	=4	=4	=4
*^	*^	*	*	*	*	*	*	*	*	*	*	*	*	*	*
!	!	!	!	!	!	!	!LO:DY:a	!	!	!	!	!	!LO:DY:a	!	!	!	!LO:DY:a
(2.G/	2.r	(2g/	2.e- [2.c\	.	2G\	.	p	2c\	.	p	2e-/	.	p	2g/	Ag-	.	p
.	.	4f#X/	.	.	4G\	.	.	4c\	.	.	4e-/	.	.	4f#X/	-nus	.	.
=5	=5	=5	=5	=5	=5	=5	=5	=5	=5	=5	=5	=5	=5	=5	=5	=5	=5
4A-/)	2.rGG	4fn/)	4d 4c\]	.	4A-\	.	.	4c\	.	.	4d/	.	.	4fn/	De-	.	.
4rB	.	4r	4r	.	4A-\	.	.	4c\	.	.	4d/	.	.	4f/	-i	.	.
4rB	.	4r	4r	.	4r	.	.	4r	.	.	4r	.	.	4r	.	.	.
=6	=6	=6	=6	=6	=6	=6	=6	=6	=6	=6	=6	=6	=6	=6	=6	=6	=6
!	!	!	!	!	!	!	!LO:DY:a:t=piu f	!	!	!LO:DY:a:t=piu f	!	!	!LO:DY:a:t=piu f	!	!	!	!LO:DY:a:t=piu f
2.c 2.A-/	2.r	(2dd/	2.f\	.	2A-\	.	f >	2c\	.	f >	2f/	.	f >	2dd\	ag-	.	f >
.	.	4cc/)	.	.	4A-\	.	]]	4c\	.	]]	4f/	.	]]	4cc\	-nus	.	]]
=7	=7	=7	=7	=7	=7	=7	=7	=7	=7	=7	=7	=7	=7	=7	=7	=7	=7
2d 2G/	2.r	(4cc/	2f\	.	4G\	.	.	4d\	.	.	4f/	.	.	4cc\	De-	.	.
.	.	4bn/)	.	.	8G\	.	.	8d\	.	.	8f/	.	.	8bn\	-i	.	.
.	.	.	.	.	8r	.	.	8r	.	.	8r	.	.	8r	.	.	.
4G/	.	4g/	4ryy	.	4G\	.	.	4G/	.	.	4g/	.	.	4g/	qui	.	.
*	*	*v	*v	*	*	*	*	*	*	*	*	*	*	*	*	*	*
=8	=8	=8	=8	=8	=8	=8	=8	=8	=8	=8	=8	=8	=8	=8	=8	=8
4c/	2.r	4cc/	.	4c\	.	.	4c\	.	.	4c/	.	.	4cc\	tol-	.	.
8G/L	.	8g/L	.	8G\	.	.	8G/	.	.	8g/	.	.	8g/	-lis	.	.
8F/	.	8f/	.	8F\	.	.	8F/	.	.	8f/	.	.	8f/	pec-	.	.
8E-/	.	8e-/	.	8E-\	.	.	8E-/	.	.	8e-/	.	.	8e-/	-ca-	.	.
8A-/J	.	8fJ 8c/	.	8A-\	.	.	8c/	.	.	8f/	.	.	8f/	-ta	.	.
!!LO:LB:g=original
=9	=9	=9	=9	=9	=9	=9	=9	=9	=9	=9	=9	=9	=9	=9	=9	=9
*	*	*^	*	*	*	*	*	*	*	*	*	*	*	*	*	*
2c/	2.G\	2.g/	4e-\	.	2.G\	.	.	(2c\	.	.	(4e-/	.	.	2.g/	mun-	.	.
.	.	.	2d\	.	.	.	.	.	.	.	2d/)	.	.	.	.	.	.
4Bn/	.	.	.	.	.	.	.	4Bn\)	.	.	.	.	.	.	.	.	.
=10	=10	=10	=10	=10	=10	=10	=10	=10	=10	=10	=10	=10	=10	=10	=10	=10	=10
[2.c/	[2.C/	[2.g/	[2.e-\	.	2C/	.	.	2c\	.	.	2e-/	.	.	2g/	-di	.	.
.	.	.	.	.	4r	.	.	4r	.	.	4r	.	.	4r	.	.	.
*v	*v	*	*	*	*	*	*	*	*	*	*	*	*	*	*	*	*
=11	=11	=11	=11	=11	=11	=11	=11	=11	=11	=11	=11	=11	=11	=11	=11	=11
8c] 8C/]	8g/]	8e-\]	.	2.ryy	.	.	2.ryy	.	.	2.ryy	.	.	2.ryy	.	.	.
8r	(>8g/L	8ryy	.	.	.	.	.	.	.	.	.	.	.	.	.	.
4r	8b-/	4ryy	.	.	.	.	.	.	.	.	.	.	.	.	.	.
.	8a-/	.	.	.	.	.	.	.	.	.	.	.	.	.	.	.
4r	8f#X/	4ryy	.	.	.	.	.	.	.	.	.	.	.	.	.	.
.	8g/J	.	.	.	.	.	.	.	.	.	.	.	.	.	.	.
*	*v	*v	*	*	*	*	*	*	*	*	*	*	*	*	*	*
=12	=12	=12	=12	=12	=12	=12	=12	=12	=12	=12	=12	=12	=12	=12	=12
2.r	8ee-\L	.	2.ryy	.	.	2.ryy	.	.	2.ryy	.	.	2.ryy	.	.	.
.	8dd	.	.	.	.	.	.	.	.	.	.	.	.	.	.
.	8cc\	.	.	.	.	.	.	.	.	.	.	.	.	.	.
.	8ee-\	.	.	.	.	.	.	.	.	.	.	.	.	.	.
.	8.gg\	.	.	.	.	.	.	.	.	.	.	.	.	.	.
.	16ff\Jk	.	.	.	.	.	.	.	.	.	.	.	.	.	.
=13	=13	=13	=13	=13	=13	=13	=13	=13	=13	=13	=13	=13	=13	=13	=13
2.r	8ee-\L	.	2.r	.	.	2.r	.	.	2.r	.	.	2.r	.	.	.
.	8bn\	.	.	.	.	.	.	.	.	.	.	.	.	.	.
.	8dd\	.	.	.	.	.	.	.	.	.	.	.	.	.	.
.	8cc\	.	.	.	.	.	.	.	.	.	.	.	.	.	.
.	8g\	.	.	.	.	.	.	.	.	.	.	.	.	.	.
.	8a-\J)	.	.	.	.	.	.	.	.	.	.	.	.	.	.
=14	=14	=14	=14	=14	=14	=14	=14	=14	=14	=14	=14	=14	=14	=14	=14
*^	*	*	*	*	*	*	*	*	*	*	*	*	*	*	*
([2.e- 2.B-/	2.r	(2b- 2g/	.	2B-\	.	.	2e-\	.	.	2g/	.	.	2b-/	ag-	.	.
.	.	4an 4g-X/	.	4B-\	.	.	4e-\	.	.	4g-X/	.	.	4an/	-nus	.	.
=15	=15	=15	=15	=15	=15	=15	=15	=15	=15	=15	=15	=15	=15	=15	=15	=15
4e-] 4c-X/)	2.r	4a-X 4f/)	.	4c-X\	.	.	4e-\	.	.	4f/	.	.	4a-X/	De-	.	.
4r	.	4r	.	4c-\	.	.	4e-\	.	.	4f/	.	.	4a-/	-i	.	.
!	!	!	!	!	!	!	!	!	!	!	!	!	!LO:DY:a:t=piu f	!	!	!
4r	.	4r	.	4r	.	.	4r	.	.	4r	.	.	4r	.	.	.
=16	=16	=16	=16	=16	=16	=16	=16	=16	=16	=16	=16	=16	=16	=16	=16	=16
*	*^	*^	*	*	*	*	*	*	*	*	*	*	*	*	*	*
!	!	!	!	!	!	!	!	!	!	!	!	!	!	!	!	!	!	!LO:DY:a:t=piu f
2dn/	2.c-X\	2.rGG	2ff/	2.a-\	.	2c-X\	.	.	2d\	.	.	2a-/	.	.	2ff\	ag-	.	f >
4e-/	.	.	4ee-/	.	.	4c-\	.	.	4e-\	.	.	4a-/	.	.	4ee-\	-nus	.	]]
*	*v	*v	*	*	*	*	*	*	*	*	*	*	*	*	*	*	*	*
=17	=17	=17	=17	=17	=17	=17	=17	=17	=17	=17	=17	=17	=17	=17	=17	=17	=17
2.B-/	2.rF	(4ee-/	2.a- 2.f\	.	4B-\	.	.	4f\	.	.	4a-/	.	.	4ee-\	De-	.	.
.	.	2dd/)	.	.	8B-\	.	.	8B-\	.	.	8f/	.	.	8dd\	-i	.	.
.	.	.	.	.	8r	.	.	8r	.	.	8r	.	.	8r	.	.	.
!	!	!	!	!	!	!	!	!	!	!	!	!	!	!LO:TX:a:t=Solo	!	!	!
.	.	.	.	.	4r	.	.	4r	.	.	4r	.	.	4dd\	qui	.	.
!!LO:PB:g=original
=18	=18	=18	=18	=18	=18	=18	=18	=18	=18	=18	=18	=18	=18	=18	=18	=18	=18
2.C/	2.rF	4ee-/	[>4g [>4e-\	.	2.ryy	.	.	4r	.	.	2.r	.	.	4ee-\	tol-	.	.
.	.	8dd/L	8g] 8e-\]	.	.	.	.	4r	.	.	.	.	.	8dd\	-lis	.	.
.	.	8cc/	8r	.	.	.	.	.	.	.	.	.	.	8cc\	pec-	.	.
!	!	!	!	!	!	!	!	!LO:TX:a:t=Solo	!	!	!	!	!	!	!	!	!
.	.	8g/	4e-\	.	.	.	.	4e-\	qui	.	.	.	.	8g/	-ca-	.	.
.	.	8a-/J	.	.	.	.	.	.	.	.	.	.	.	8a-/	-ta	.	.
=19	=19	=19	=19	=19	=19	=19	=19	=19	=19	=19	=19	=19	=19	=19	=19	=19	=19
2.GG/	2.rF	4b-/	4g\	.	2.ryy	.	.	4g\	tol-	.	4r	.	.	4b-/	mun-	.	.
.	.	4ryy	8f\L	.	.	.	.	8f\	-lis	.	4r	.	.	4b-/	-di	.	.
.	.	.	8e-\	.	.	.	.	8e-\	pec-	.	.	.	.	.	.	.	.
!	!	!	!	!	!	!	!	!	!	!	!LO:TX:a:t=Solo	!	!	!	!	!	!
.	.	4b-/	8B-\	.	.	.	.	8B-\	-ca-	.	4b-\	qui	.	4r	.	.	.
.	.	.	8d-X\J	.	.	.	.	8d-X\	-ta	.	.	.	.	.	.	.	.
=20	=20	=20	=20	=20	=20	=20	=20	=20	=20	=20	=20	=20	=20	=20	=20	=20	=20
2.AA-/	2.rF	4cc/	4c\	.	4r	.	.	2c\	mun-	.	4cc\	tol-	.	2.r	.	.	.
.	.	8b-/L	4r	.	4r	.	.	.	.	.	8b-/	-lis	.	.	.	.	.
.	.	8a-/	.	.	.	.	.	.	.	.	8a-/	pec-	.	.	.	.	.
!	!	!	!	!	!LO:TX:a:t=Solo	!	!	!	!	!	!	!	!	!	!	!	!
.	.	8e-/	4c\	.	4c\	pec-	.	8e-\	-di	.	8e-/	-ca-	.	.	.	.	.
.	.	8f/J	.	.	.	.	.	8r	.	.	8f/	-ta	.	.	.	.	.
*	*	*v	*v	*	*	*	*	*	*	*	*	*	*	*	*	*	*
=21	=21	=21	=21	=21	=21	=21	=21	=21	=21	=21	=21	=21	=21	=21	=21	=21
4B-/	2.BB-/	2.g/	.	(4B-\	-ca-	.	2.r	.	.	2g/	mun-	.	2.r	.	.	.
8A-/L	.	.	.	8A-\)	.	.	.	.	.	.	.	.	.	.	.	.
8G/	.	.	.	8G\	-ta	.	.	.	.	.	.	.	.	.	.	.
8.F/	.	.	.	8.F\	mun-	.	.	.	.	8e-/	-di	.	.	.	.	.
!	!	!	!	!	!	!	!	!	!	!LO:TX:a:t=tutti	!	!	!	!	!	!
.	.	.	.	.	.	.	.	.	.	8r	.	.	.	.	.	.
16E-/J	.	.	.	16A-\	-di	.	.	.	.	.	.	.	.	.	.	.
=22	=22	=22	=22	=22	=22	=22	=22	=22	=22	=22	=22	=22	=22	=22	=22	=22
!LO:TX:color=green:t=CB	!	!	!	!LO:TX:a:t=tutti	!	!	!LO:TX:a:t=tutti	!	!	!	!	!	!LO:TX:a:t=tutti	!	!	!
!LO:TX:t=P:problem:dodatkowy łuk pomiędzy dwoma systemami	!	!	!	!	!	!	!	!	!	!	!	!	!	!	!	!
8E-/L	2.EE-^\	4.g 4.e-/	.	8.E-\	.	.	8.B-\	.	.	8.e-/	.	.	8.g/	Mi-	.	.
8BB-/J	.	.	.	.	.	.	.	.	.	.	.	.	.	.	.	.
.	.	.	.	16E-\	.	.	16B-\	.	.	16e-/	.	.	16g/	-se-	.	.
2E-/	.	.	.	4E-\	.	.	4B-\	.	.	4e-/	.	.	4g/	-re-	.	.
.	.	8B-/L	.	.	.	.	.	.	.	.	.	.	.	.	.	.
.	.	8g-X 8e-/	.	4E-\	.	.	4B-\	.	.	4e-/	.	.	4g-X/	-re	.	.
.	.	8B-/JN)	.	.	.	.	.	.	.	.	.	.	.	.	.	.
=23	=23	=23	=23	=23	=23	=23	=23	=23	=23	=23	=23	=23	=23	=23	=23	=23
*	*	*^	*	*	*	*	*	*	*	*	*	*	*	*	*	*
8C/L	2.EE-^\	(4.f 4.An/	2A\	.	2E-\	.	.	2An/	.	.	2c/	.	.	2f/	no-	.	.
8F/J	.	.	.	.	.	.	.	.	.	.	.	.	.	.	.	.	.
(2E-/	.	.	.	.	.	.	.	.	.	.	.	.	.	.	.	.	.
.	.	8c/L	.	.	.	.	.	.	.	.	.	.	.	.	.	.	.
.	.	8f/	4A-X\	.	8E-\	.	.	8A-X/	.	.	8c/	.	.	8f/	-bis	.	.
.	.	8c/J)	.	.	8r	.	.	8r	.	.	8r	.	.	8r	.	.	.
=24	=24	=24	=24	=24	=24	=24	=24	=24	=24	=24	=24	=24	=24	=24	=24	=24	=24
*	*	*	*^	*	*	*	*	*	*	*	*	*	*	*	*	*	*
8AA-/L)	2.EE-^\	4a- 4c-X/	4ryy	4.ryy	.	8.E-\	.	.	8.e-\	.	.	8.c-X/	.	.	8.a-/	mi-	.	.
!LO:TX:t=P:problem:dodatkowy łuk pomiędzy dwoma systemami	!	!	!	!	!	!	!	!	!	!	!	!	!	!	!	!	!	!
[<8E-/J	.	.	.	.	.	.	.	.	.	.	.	.	.	.	.	.	.	.
.	.	.	.	.	.	16E-\	.	.	16e-\	.	.	16c-/	.	.	16a-/	-se-	.	.
!	!	!LO:N:vis=2	!	!	!	!	!	!	!	!	!	!	!	!	!	!	!	!
2E-/_	.	8A-/L	2A-\	.	.	4E-\	.	.	4e-\	.	.	4c-/	.	.	4a-/	-re-	.	.
.	.	8c-X/	.	4.c-X\	.	.	.	.	.	.	.	.	.	.	.	.	.	.
.	.	8e-/	.	.	.	4E-\	.	.	4e-\	.	.	4c-/	.	.	4a-/	-re	.	.
.	.	8a-/JN)	.	.	.	.	.	.	.	.	.	.	.	.	.	.	.	.
*	*	*	*v	*v	*	*	*	*	*	*	*	*	*	*	*	*	*	*
=25	=25	=25	=25	=25	=25	=25	=25	=25	=25	=25	=25	=25	=25	=25	=25	=25	=25
8E-/L]	2.EE-^\	4g-X 4B-/	4.ryy	.	2E-\	.	.	2B-\	.	.	2B-/	.	.	2g-X/	.	.	.
!LO:TX:t=P:problem:dodatkowy łuk pomiędzy dwoma systemami	!	!	!	!	!	!	!	!	!	!	!	!	!	!	!	!	!
8BB-/J	.	.	.	.	.	.	.	.	.	.	.	.	.	.	.	.	.
2E-/	.	8f/L	.	.	.	.	.	.	.	.	.	.	.	.	.	.	.
.	.	8G-X/	4.G-\	.	.	.	.	.	.	.	.	.	.	.	.	.	.
.	.	8B-/	.	.	8E-\	.	.	8e-\	.	.	8e-/	.	.	8e-/	.	.	.
.	.	8e-/J	.	.	8r	.	.	8r	.	.	8r	.	.	8r	.	.	.
!!LO:LB:g=original
=26	=26	=26	=26	=26	=26	=26	=26	=26	=26	=26	=26	=26	=26	=26	=26	=26	=26
8EE-^</L	4EE-\	[2cc-X 2a- 2e-/	2ryy	.	[2.E-\	mi-	.	2e-\	mi-	.	2a-/	mi-	.	8.cc-X\	mi-	.	.
8E-/	.	.	.	.	.	.	.	.	.	.	.	.	.	.	.	.	.
.	.	.	.	.	.	.	.	.	.	.	.	.	.	16cc-\	-se-	.	.
8EE-^</	4EE-\	.	.	.	.	.	.	.	.	.	.	.	.	4.cc-\	-re-	.	.
8E-/	.	.	.	.	.	.	.	.	.	.	.	.	.	.	.	.	.
8EE-/	4EE-^\	8cc-/L]	4f 4dn\	.	.	.	.	4dn\	-se-	.	4f/	-se-	.	.	.	.	.
8E-/J	.	8b-/J	.	.	.	.	.	.	.	.	.	.	.	8b-\	-re,	.	.
=27	=27	=27	=27	=27	=27	=27	=27	=27	=27	=27	=27	=27	=27	=27	=27	=27	=27
*rep	*rep	*	*	*	*	*	*	*	*	*	*	*	*	*	*	*	*
8EE-^</L	4EE-\	[2b- 2g/	2d-X\	.	2E-\]	.	.	2d-X\	-re-	.	2g/	-re-	.	8.b-\	mi-	.	.
8E-/	.	.	.	.	.	.	.	.	.	.	.	.	.	.	.	.	.
.	.	.	.	.	.	.	.	.	.	.	.	.	.	16b-\	-se-	.	.
8EE-^</	4EE-\	.	.	.	.	.	.	.	.	.	.	.	.	4.b-\	-re-	.	.
8E-/	.	.	.	.	.	.	.	.	.	.	.	.	.	.	.	.	.
8EE-/	4EE-^<\	8b-/L]	4e- 4c-X\	.	4E-\	-se-	.	4c-X\	-re	.	4e-/	-re	.	.	.	.	.
8E-/J	.	8a-/J	.	.	.	.	.	.	.	.	.	.	.	8a-/	-re	.	.
*Xrep	*Xrep	*	*	*	*	*	*	*	*	*	*	*	*	*	*	*	*
=28	=28	=28	=28	=28	=28	=28	=28	=28	=28	=28	=28	=28	=28	=28	=28	=28	=28
[2.E-/	[2.EE-\	4a-/	8c-X\L	.	[2.E-\	-re-	.	(4c-X\	no-	.	2.e-/	no-	.	(4a-/	no-	.	.
.	.	.	8e-\	.	.	.	.	.	.	.	.	.	.	.	.	.	.
.	.	4g/	8B-\	.	.	.	.	4B-\	.	.	.	.	.	4g/)	.	.	.
.	.	.	8d-X\	.	.	.	.	.	.	.	.	.	.	.	.	.	.
.	.	4a-/	8c-\	.	.	.	.	4A-\)	.	.	.	.	.	4a-/	-bis	.	.
.	.	.	8e-\J	.	.	.	.	.	.	.	.	.	.	.	.	.	.
=29	=29	=29	=29	=29	=29	=29	=29	=29	=29	=29	=29	=29	=29	=29	=29	=29	=29
2E-/]	2EE-\]	2b-/	8fL 8B-\	.	2E-\]	.	.	2G/	-bis	.	2g/	-bis.	.	2b-\	A-	.	.
.	.	.	8e-\	.	.	.	.	.	.	.	.	.	.	.	.	.	.
.	.	.	8g\	.	.	.	.	.	.	.	.	.	.	.	.	.	.
.	.	.	8a-\	.	.	.	.	.	.	.	.	.	.	.	.	.	.
4G 4Dn/	4DD\	4bn/	8g\	.	4Dn\	-re,	.	4r	.	.	4r	.	.	4bn\	-gnus	.	.
.	.	.	8f\J	.	.	.	.	.	.	.	.	.	.	.	.	.	.
!!LO:TX:a:color=red:t=A
=30	=30	=30	=30	=30	=30	=30	=30	=30	=30	=30	=30	=30	=30	=30	=30	=30	=30
2.G/	2.C 2.CC^\	8r	2.e-\	.	2.C\	.	.	2.G/	.	.	2.e-/	.	.	2.cc\	A-	.	.
.	.	8g/L	.	.	.	.	.	.	.	.	.	.	.	.	.	.	.
.	.	8a-/	.	.	.	.	.	.	.	.	.	.	.	.	.	.	.
.	.	8g/	.	.	.	.	.	.	.	.	.	.	.	.	.	.	.
.	.	8e-/	.	.	.	.	.	.	.	.	.	.	.	.	.	.	.
.	.	8cc/J	.	.	.	.	.	.	.	.	.	.	.	.	.	.	.
=31	=31	=31	=31	=31	=31	=31	=31	=31	=31	=31	=31	=31	=31	=31	=31	=31	=31
2.c 2.A-/	2.C 2.CC^\	8dd/L	2.f\	.	2.C\	.	.	2.c\	.	.	2.f/	.	.	2.a-/	-gnus	.	.
.	.	8cc/	.	.	.	.	.	.	.	.	.	.	.	.	.	.	.
.	.	8bn/	.	.	.	.	.	.	.	.	.	.	.	.	.	.	.
.	.	8cc/	.	.	.	.	.	.	.	.	.	.	.	.	.	.	.
.	.	8dd/	.	.	.	.	.	.	.	.	.	.	.	.	.	.	.
.	.	8ee-/J	.	.	.	.	.	.	.	.	.	.	.	.	.	.	.
=32	=32	=32	=32	=32	=32	=32	=32	=32	=32	=32	=32	=32	=32	=32	=32	=32	=32
!LO:TX:t=P:problem:dodatkowy łuk pomiędzy dwoma systemami	!	!	!	!	!	!	!	!	!	!	!	!	!	!	!	!	!
2.d [2.G/	2.C 2.CC^\	8gg/L	(2.g\	.	2.C\	.	.	2.G/	.	.	2.dn/	.	.	2.g/	De-	.	.
.	.	8ff/	.	.	.	.	.	.	.	.	.	.	.	.	.	.	.
.	.	8ee-X/	.	.	.	.	.	.	.	.	.	.	.	.	.	.	.
.	.	8cc/	.	.	.	.	.	.	.	.	.	.	.	.	.	.	.
.	.	8dd/	.	.	.	.	.	.	.	.	.	.	.	.	.	.	.
.	.	8ee-/J	.	.	.	.	.	.	.	.	.	.	.	.	.	.	.
=33	=33	=33	=33	=33	=33	=33	=33	=33	=33	=33	=33	=33	=33	=33	=33	=33	=33
!	!	!	!	!	!LO:N:vis=2.	!	!	!LO:N:vis=2.	!	!	!LO:N:vis=2.	!	!	!	!	!	!
2.G/]	2C 2CC^\	8aa-L 8a-/)	2.e- 2.c\)	.	2C\	.	.	2G/	.	.	2c/	.	.	2e-/	-i	.	.
.	.	8gg 8g/	.	.	.	.	.	.	.	.	.	.	.	.	.	.	.
.	.	8ff/	.	.	.	.	.	.	.	.	.	.	.	.	.	.	.
.	.	8ee-/	.	.	.	.	.	.	.	.	.	.	.	.	.	.	.
.	4r	8dd/	.	.	4C\	.	.	4G/	.	.	4c/	.	.	4c/	qui	.	.
.	.	8cc/J	.	.	.	.	.	.	.	.	.	.	.	.	.	.	.
*	*	*v	*v	*	*	*	*	*	*	*	*	*	*	*	*	*	*
!!LO:PB:g=original
=34	=34	=34	=34	=34	=34	=34	=34	=34	=34	=34	=34	=34	=34	=34	=34	=34
!LO:SIC:v:s=Bn	!	!	!	!	!	!	!	!	!	!	!	!	!	!	!	!
2.d 2.B-/	2.G\	8bn/L	.	2G\	.	.	2.Bn\	.	.	2.d/	.	.	2.d/	tol-	.	.
.	.	8cc/	.	.	.	.	.	.	.	.	.	.	.	.	.	.
.	.	8dd/	.	.	.	.	.	.	.	.	.	.	.	.	.	.
.	.	8ff/	.	.	.	.	.	.	.	.	.	.	.	.	.	.
.	.	8ee-/	.	4ryy	.	.	.	.	.	.	.	.	.	.	.	.
.	.	8dd/J	.	.	.	.	.	.	.	.	.	.	.	.	.	.
*v	*v	*	*	*	*	*	*	*	*	*	*	*	*	*	*	*
=35	=35	=35	=35	=35	=35	=35	=35	=35	=35	=35	=35	=35	=35	=35	=35
*	*^	*	*	*	*	*	*	*	*	*	*	*	*	*	*
!	!	!	!	!LO:N:vis=2.	!	!	!	!	!	!LO:N:vis=2.	!	!	!	!	!	!
2.c 2.A-\	8dd/L	2.f\	.	2A-\	.	.	2c\	.	.	2c/	.	.	2c/	-lis	.	.
.	8cc/	.	.	.	.	.	.	.	.	.	.	.	.	.	.	.
.	8bn/	.	.	.	.	.	.	.	.	.	.	.	.	.	.	.
.	8cc/	.	.	.	.	.	.	.	.	.	.	.	.	.	.	.
.	8dd/	.	.	4A-\	.	.	4c\	.	.	4c/	.	.	4c/	pec-	.	.
.	8ee-/J	.	.	.	.	.	.	.	.	.	.	.	.	.	.	.
*	*v	*v	*	*	*	*	*	*	*	*	*	*	*	*	*	*
=36	=36	=36	=36	=36	=36	=36	=36	=36	=36	=36	=36	=36	=36	=36	=36
*^	*	*	*	*	*	*	*	*	*	*	*	*	*	*	*
2.d 2.Bn/	2.G\	8gg/L	.	2.G\	.	.	2.Bn\	.	.	2.d/	.	.	2.g/	-ca-	.	.
.	.	8ff/	.	.	.	.	.	.	.	.	.	.	.	.	.	.
.	.	8een/	.	.	.	.	.	.	.	.	.	.	.	.	.	.
.	.	8ff/	.	.	.	.	.	.	.	.	.	.	.	.	.	.
.	.	8gg/	.	.	.	.	.	.	.	.	.	.	.	.	.	.
.	.	8aa-/J	.	.	.	.	.	.	.	.	.	.	.	.	.	.
=37	=37	=37	=37	=37	=37	=37	=37	=37	=37	=37	=37	=37	=37	=37	=37	=37
2.f/	2.c 2.F\	8.ccc/L	.	2.F\	.	.	2.c\	.	.	2.f/	.	.	2.a-/	-ta	.	.
.	.	16bb-/K	.	.	.	.	.	.	.	.	.	.	.	.	.	.
.	.	8aa-/	.	.	.	.	.	.	.	.	.	.	.	.	.	.
.	.	8gg/	.	.	.	.	.	.	.	.	.	.	.	.	.	.
.	.	8ff/	.	.	.	.	.	.	.	.	.	.	.	.	.	.
.	.	8ee-/J	.	.	.	.	.	.	.	.	.	.	.	.	.	.
*v	*v	*	*	*	*	*	*	*	*	*	*	*	*	*	*	*
=38	=38	=38	=38	=38	=38	=38	=38	=38	=38	=38	=38	=38	=38	=38	=38
*	*^	*	*	*	*	*	*	*	*	*	*	*	*	*	*
2.BB-/	8dd/L	4f\	.	2BB-/	.	.	2d\	.	.	2f/	.	.	2a-/	mun-	.	.
.	8cc/	.	.	.	.	.	.	.	.	.	.	.	.	.	.	.
.	8b-/	2d\	.	.	.	.	.	.	.	.	.	.	.	.	.	.
.	8bn/	.	.	.	.	.	.	.	.	.	.	.	.	.	.	.
.	8cc/	.	.	4BB-/	.	.	4d\	.	.	4f/	.	.	4a-/	-di	.	.
.	8a-/J	.	.	.	.	.	.	.	.	.	.	.	.	.	.	.
=39	=39	=39	=39	=39	=39	=39	=39	=39	=39	=39	=39	=39	=39	=39	=39	=39
*^	*	*	*	*	*	*	*	*	*	*	*	*	*	*	*	*
(2e-/	2.E-/	8g/L	[2.g\	.	2E-\	.	.	2e-\	.	.	2e-/	.	.	2g/	mi-	.	.
.	.	8b-/	.	.	.	.	.	.	.	.	.	.	.	.	.	.	.
.	.	8ee-/	.	.	.	.	.	.	.	.	.	.	.	.	.	.	.
.	.	8gg/	.	.	.	.	.	.	.	.	.	.	.	.	.	.	.
4B-/)	.	8ff/	.	.	4E-\	.	.	4B-\	.	.	4e-/	.	.	4g/	-se-	.	.
.	.	8ee-/J	.	.	.	.	.	.	.	.	.	.	.	.	.	.	.
*v	*v	*	*	*	*	*	*	*	*	*	*	*	*	*	*	*	*
=40	=40	=40	=40	=40	=40	=40	=40	=40	=40	=40	=40	=40	=40	=40	=40	=40
2.B-/ 2.BB-/	8dd/L	4g\]	.	2BB-/	.	.	2B-\	.	.	2d/	.	.	(4g/	-re-	.	.
.	8ee-/J	.	.	.	.	.	.	.	.	.	.	.	.	.	.	.
.	8ff/L	4f\	.	.	.	.	.	.	.	.	.	.	4.f/)	.	.	.
.	16dd/L	.	.	.	.	.	.	.	.	.	.	.	.	.	.	.
.	16b-/JJ	.	.	.	.	.	.	.	.	.	.	.	.	.	.	.
.	8f/L	4ryy	.	4BB-/	.	.	4B-\	.	.	4d/	.	.	.	.	.	.
.	8g/J	.	.	.	.	.	.	.	.	.	.	.	8g/	-re	.	.
=41	=41	=41	=41	=41	=41	=41	=41	=41	=41	=41	=41	=41	=41	=41	=41	=41
2.c 2.F\	8a-/L	2.a-\	.	2F\	.	.	2c\	.	.	2f/	.	.	2a-/	mi-	.	.
.	8cc/	.	.	.	.	.	.	.	.	.	.	.	.	.	.	.
.	8ff/	.	.	.	.	.	.	.	.	.	.	.	.	.	.	.
.	8aa-/	.	.	.	.	.	.	.	.	.	.	.	.	.	.	.
.	8gg/	.	.	4F\	.	.	4c\	.	.	4f/	.	.	4a-/	-se-	.	.
.	(8ff/J	.	.	.	.	.	.	.	.	.	.	.	.	.	.	.
!!LO:LB:g=original
=42	=42	=42	=42	=42	=42	=42	=42	=42	=42	=42	=42	=42	=42	=42	=42	=42
*^	*	*	*	*	*	*	*	*	*	*	*	*	*	*	*	*
2.c 2.C/	2.rF	8ee-/L)	(4a-\	.	2.C/	.	.	2c\	.	.	2e-/	.	.	(4a-/	-re-	.	.
.	.	8ff/J	.	.	.	.	.	.	.	.	.	.	.	.	.	.	.
.	.	8gg/L	4g\)	.	.	.	.	.	.	.	.	.	.	4.g/)	.	.	.
.	.	16ee-/L	.	.	.	.	.	.	.	.	.	.	.	.	.	.	.
.	.	16cc/JJ	.	.	.	.	.	.	.	.	.	.	.	.	.	.	.
.	.	8g/L	4ryy	.	.	.	.	4c\	.	.	4e-/	.	.	.	.	.	.
.	.	8a-/J	.	.	.	.	.	.	.	.	.	.	.	8a-/	-re	.	.
=43	=43	=43	=43	=43	=43	=43	=43	=43	=43	=43	=43	=43	=43	=43	=43	=43	=43
*	*^	*	*	*	*	*	*	*	*	*	*	*	*	*	*	*	*
(4e-/	2.rF	2G\	8b-/L	2.b-\	.	2G\	.	.	2B-\	.	.	2e-/	.	.	2b-/	A-	.	.
.	.	.	8ee-/	.	.	.	.	.	.	.	.	.	.	.	.	.	.	.
[2B-)/	.	.	8gg/	.	.	.	.	.	.	.	.	.	.	.	.	.	.	.
.	.	.	8bb-/J	.	.	.	.	.	.	.	.	.	.	.	.	.	.	.
!	!	!LO:TX:t=P:problem:błędne wyświetlanie łuku	!	!	!	!	!	!	!	!	!	!	!	!	!	!	!	!
.	.	(4D\	8.bb-/L	.	.	4D\	.	.	4B-\	.	.	4f/	.	.	4f/	-gnus	.	.
.	.	.	16aa-/Jk	.	.	.	.	.	.	.	.	.	.	.	.	.	.	.
=44	=44	=44	=44	=44	=44	=44	=44	=44	=44	=44	=44	=44	=44	=44	=44	=44	=44	=44
(>4B-/]	2.rFF	4E-\)	8.aa-/L	4b-\	.	(>4E-\	.	.	(4B-/	.	.	(4e-/	.	.	(4g/	De-	.	.
.	.	.	16gg/Jk	.	.	.	.	.	.	.	.	.	.	.	.	.	.	.
4d 4A-/	.	4BB-\	8.gg/L	4a-\	.	4BB-/)	.	.	4A-/)	.	.	4d/)	.	.	4d/)	.	.	.
.	.	.	16ff/Jk	.	.	.	.	.	.	.	.	.	.	.	.	.	.	.
4c 4G/	.	4C\	8.ff/L	4g\	.	4C/	.	.	4G/	.	.	4e-/	.	.	4e-/	-i	.	.
.	.	.	16ee-/Jk	.	.	.	.	.	.	.	.	.	.	.	.	.	.	.
*	*v	*v	*	*	*	*	*	*	*	*	*	*	*	*	*	*	*	*
=45	=45	=45	=45	=45	=45	=45	=45	=45	=45	=45	=45	=45	=45	=45	=45	=45	=45
4A- 4C-X/	2.rFF	8ee-/L	4a-\	.	(4C-X/	.	.	(>4A-/	.	.	2e-/	.	.	(4a-/	a-	.	.
.	.	16dd/L	.	.	.	.	.	.	.	.	.	.	.	.	.	.	.
.	.	16ee-/JJ	.	.	.	.	.	.	.	.	.	.	.	.	.	.	.
4B- 4BB-/	.	4.gg/	2g\	.	4BB-/)	.	.	4e-\)	.	.	.	.	.	4g/)	.	.	.
4B- 4BBn/	.	.	.	.	4BBn/	.	.	4d\	.	.	4f/	.	.	4g/	-gnus	.	.
.	.	8ff/	.	.	.	.	.	.	.	.	.	.	.	.	.	.	.
=46	=46	=46	=46	=46	=46	=46	=46	=46	=46	=46	=46	=46	=46	=46	=46	=46	=46
4c 4C/	2.rFF	8.ff/L	4g\	.	(4C/	.	.	(4c\	.	.	(4e-/	.	.	2g/	De-	.	.
.	.	16ee-/Jk	.	.	.	.	.	.	.	.	.	.	.	.	.	.	.
4Bn 4GG/	.	8.ee-/L	4f\	.	4GG/)	.	.	4Bn\)	.	.	4Bn/)	.	.	.	.	.	.
.	.	16dd/Jk	.	.	.	.	.	.	.	.	.	.	.	.	.	.	.
4c 4AA-/	.	8.dd/L	4e-\	.	4AA-/	.	.	4c\	.	.	4c/	.	.	4g/	-i	.	.
.	.	16cc/Jk	.	.	.	.	.	.	.	.	.	.	.	.	.	.	.
=47	=47	=47	=47	=47	=47	=47	=47	=47	=47	=47	=47	=47	=47	=47	=47	=47	=47
4F 4FF\	2.rFF	8cc/L	8gL 8e-\	.	8F\	.	.	8e-\	.	.	8c/	.	.	8g/	mi-	.	.
.	.	16bn/L	8fJ 8d\	.	8F\	.	.	8d\	.	.	8c/	.	.	8f/	-se-	.	.
.	.	16cc/JJ	.	.	.	.	.	.	.	.	.	.	.	.	.	.	.
8G 8GG/)	.	4.ee-/	8c\L	.	4G\	.	.	4c\	.	.	4c/	.	.	4e-/	-re-	.	.
8r	.	.	8a-\	.	.	.	.	.	.	.	.	.	.	.	.	.	.
8G 8GG/	.	.	8g\	.	8GG/	.	.	8G/	.	.	8d/	.	.	8g/	-re	.	.
8r	.	8dd/	8f\J	.	8r	.	.	8r	.	.	8r	.	.	8r	.	.	.
=48	=48	=48	=48	=48	=48	=48	=48	=48	=48	=48	=48	=48	=48	=48	=48	=48	=48
!!LO:TX:a:color=red:t=E
!LO:TX:b:i:t=ped&colon;	!	!	!	!	!	!	!	!	!	!	!	!	!	!	!	!	!
2.G 2.C/	[2.CC\	(2cc/	2.e-\	.	2C/	.	.	2G/	.	.	2e-/	.	.	2cc\	a-	.	.
.	.	4b-/)	.	.	4C/	.	.	4G/	.	.	4e-/	.	.	4b-\	-gnus	.	.
*	*	*v	*v	*	*	*	*	*	*	*	*	*	*	*	*	*	*
=49	=49	=49	=49	=49	=49	=49	=49	=49	=49	=49	=49	=49	=49	=49	=49	=49
4G-X 4C/	4CC\]	4b- 4e-/	.	4C/	.	.	4G-X/	.	.	4e-/	.	.	4b-\	De-	.	.
4G- 4C/	4CC\	4an 4e-/	.	4C/	.	.	4G-/	.	.	4e-/	.	.	4an\	-i	.	.
4r	4r	4r	.	4r	.	.	4r	.	.	4r	.	.	4r	.	.	.
!!LO:PB:g=original
=50	=50	=50	=50	=50	=50	=50	=50	=50	=50	=50	=50	=50	=50	=50	=50	=50
*	*	*^	*	*	*	*	*	*	*	*	*	*	*	*	*	*
!	!	!	!	!	!	!	!LO:DY:a:t=piu f	!	!	!LO:DY:a:t=piu f	!	!	!LO:DY:a:t=piu f	!	!	!	!LO:DY:a:t=piu f
(2c/	2.An 2.C\	(2ee-/	2.f#X\	.	2An\	.	f	2c\	ag-	f	2f#X/	ag-	f	2ee-\	ag-	.	f
4d/)	.	4dd/)	.	.	4A\	.	.	4d\	-[nus-	.	4f#/	-[nus	.	4dd\	-nus	.	.
*	*	*v	*v	*	*	*	*	*	*	*	*	*	*	*	*	*	*
=51	=51	=51	=51	=51	=51	=51	=51	=51	=51	=51	=51	=51	=51	=51	=51	=51
!LO:ACC:color=dodgerblue	!	!	!	!	!	!	!	!	!	!	!	!	!	!	!	!
4d 4An/	4C\	4dd 4f#X/	.	4An\	.	.	4d\	-De-	.	4f#X/	De-	.	4dd\	De-	.	.
4e- 4A/	4C\	4cc 4f#/	.	4A\	.	.	4e-\	-i]	.	4f#/	-i]	.	4cc\	-i	.	.
4r	4ryy	4r	.	4r	.	.	4r	.	.	4r	.	.	4r	.	.	.
=52	=52	=52	=52	=52	=52	=52	=52	=52	=52	=52	=52	=52	=52	=52	=52	=52
*	*	*^	*	*	*	*	*	*	*	*	*	*	*	*	*	*
!	!	!	!	!	!	!	!LO:DY:a	!	!	!LO:DY:a	!	!	!LO:DY:a	!	!	!	!LO:DY:a
2e- 2c 2G/	2C\	[2.gg/	(2cc [2g\	.	2c\	Ag-	f	2e-\	Ag-	f	2cc\	Ag-	f	([2.gg\	ag-	.	f
4d 4Bn/	4BBn\	.	4dd 4g\])	.	4Bn\	-nus	.	4d\	-nus	.	4g/	-nus,	.	.	.	.	.
=53	=53	=53	=53	=53	=53	=53	=53	=53	=53	=53	=53	=53	=53	=53	=53	=53	=53
(4en 4B-X/	4BB-X\	4gg/]	4dd-X 4g\	.	(4B-X\	ag-	.	(4d-X\	ag-	.	(4en/	ag-	.	4gg\])	.	.	.
!	!	!	!	!	!LO:ACC:color=dodgerblue	!	!	!	!	!	!	!	!	!	!	!	!
4f 4A-X/	4AA-X\	4ff/	4cc 4f\	.	4A-X\)	.	.	4c\)	.	.	4f/)	.	.	4ff\	.	.	.
8eL 8G/)	4GG\	8cc/L	4cc 4g\	.	4G\@	-nus	.	4e-\@	-nus	.	4g/	-nus	.	8cc\L	-nus	.	.
8c/J	.	8ee-/J	.	.	.	.	.	.	.	.	.	.	.	8ee-\J	.	.	.
=54	=54	=54	=54	=54	=54	=54	=54	=54	=54	=54	=54	=54	=54	=54	=54	=54	=54
(2F/	2FF\	4.dd-X/	2a- 2f\	.	(2F\	De-	.	(2f\	De-	.	(2a-/	De-	.	4.dd-X\	De-	.	.
.	.	8cc/	.	.	.	.	.	.	.	.	.	.	.	8cc\	.	.	.
4G/	4GG\	4bn/	4f 4dn\	.	4G\)	-i	.	4dn\)	.	.	4f/)	.	.	4bn\	.	.	.
=55	=55	=55	=55	=55	=55	=55	=55	=55	=55	=55	=55	=55	=55	=55	=55	=55	=55
!	!	!	!	!	!LO:ART:color=blue	!	!	!	!	!	!	!	!	!	!	!	!
4.A-/	4.AA-\	4cc/	4e- 4c\	.	(4.A-^\	mi-	.	4c\	-i	.	4e-/	-i	.	4cc\	-i	.	.
.	.	4r	4ryy	pp	.	.	.	4r	.	.	4r	.	.	4r	.	.	.
8G/	8GG\	.	.	.	8G\)	.	.	.	.	.	.	.	.	.	.	.	.
!	!	!	!	!	!	!	!	!	!	!	!	!	!LO:DY:a	!	!	!	!LO:DY:a
4G-X/)	4GG-X\	4e- 4c/	4ryy	.	4G-X\	-se-	.	8A-/	mi-	p	8c/	mi-	p	8e-/	mi-	.	p
.	.	.	.	.	.	.	.	8A-/	-se-	.	8c/	-se-	.	8e-/	-se-	.	.
!!LO:TX:t=P:problem:skreślony takt
=56	=56	=56	=56	=56	=56	=56	=56	=56	=56	=56	=56	=56	=56	=56	=56	=56	=56
!	!	!	!	!	!	!	!	!	!	!	!LO:ACC:color=dodgerblue	!	!	!	!	!	!
2.A- 2.F/	2.FF\	[2.a-/	2d-X\	.	(2.F\	.	.	(2A-/	.	.	(2d-X/	-re-	.	([>2.a-/	-re-	.	.
.	.	.	4c\	.	.	.	.	4F/	.	.	(4c/)	.	.	.	.	.	.
=57	=57	=57	=57	=57	=57	=57	=57	=57	=57	=57	=57	=57	=57	=57	=57	=57	=57
!	!	!	!	!	!	!	!	!LO:ACC:color=dodgerblue	!	!	!	!	!	!	!	!	!
2.D/	2.GG\	(4a-/]	2.Bn\	.	2.GG/)	.	.	2.BBn/)	.	.	2.Bn/)	.	.	4a-/]	.	.	.
.	.	2g/)	.	.	.	.	.	.	.	.	.	.	.	2g/)	.	.	.
*	*	*v	*v	*	*	*	*	*	*	*	*	*	*	*	*	*	*
!!LO:LB:g=original
=58	=58	=58	=58	=58	=58	=58	=58	=58	=58	=58	=58	=58	=58	=58	=58	=58
2.E- 2.C;/	2.CC\	2.g 2.c;/	.	2.C;\	-re!	.	2.E-;/	-re!	.	2.c;/	-re!	.	2.g;/	-re!	.	.
*v	*v	*	*	*	*	*	*	*	*	*	*	*	*	*	*	*
=59||	=59||	=59||	=59||	=59||	=59||	=59||	=59||	=59||	=59||	=59||	=59||	=59||	=59||	=59||	=59||
*M6/8	*M6/8	*	*M6/8	*	*	*M6/8	*	*	*M6/8	*	*	*M6/8	*	*	*
*^	*^	*	*	*	*	*	*	*	*	*	*	*	*	*	*
!	!	!	!	!	!LO:TX:a:t=Solo	!	!	!LO:TX:a:t=Solo	!	!	!LO:TX:a:t=Solo	!	!	!LO:TX:a:t=Andantino	!	!	!
(<4.E-/	2.rFF	(4.g/	4.B-\	pp	4E-\	.	.	4B-\	.	.	4g/	A-	.	2.r	.	.	.
.	.	.	.	.	8E-\	.	.	8B-\	.	.	8g/	-gnus	.	.	.	.	.
4.G/	.	[4.b-/	4.e-\	.	4G\	.	.	4e-\	.	.	4b-/	De-	.	.	.	.	.
.	.	.	.	.	8G\	.	.	8e-\	.	.	8b-/	-i!	.	.	.	.	.
=60	=60	=60	=60	=60	=60	=60	=60	=60	=60	=60	=60	=60	=60	=60	=60	=60	=60
4.F/	2.rFF	8b-/L]	4.c\	.	4F\	.	.	4c\	.	.	8b-/L	do-	.	2.r	.	.	.
.	.	8a-/	.	.	.	.	.	.	.	.	8a-/J	.	.	.	.	.	.
.	.	8g/J	.	.	8F\	.	.	8c\	.	.	8g/	-na	.	.	.	.	.
4.B-/	.	4.a-/	4.d\	.	4B-\	.	.	4d\	.	.	4a-/	no-	.	.	.	.	.
.	.	.	.	.	8B-\	.	.	8d\	.	.	8a-/	-bis,	.	.	.	.	.
=61	=61	=61	=61	=61	=61	=61	=61	=61	=61	=61	=61	=61	=61	=61	=61	=61	=61
4E-/	2.rFF	4g/	[4.e-\	.	4E-\	.	.	4e-\	.	.	4g/	do-	.	2.r	.	.	.
8F/	.	8a-/	.	.	8F\	.	.	8e-\	.	.	8a-/	-na	.	.	.	.	.
4G/	.	4b-/	4e-\]	.	4G\	.	.	4e-\	.	.	4b-/	no-	.	.	.	.	.
8E-/	.	8e-/	8ryy	.	8E-\	.	.	8e-\	.	.	8f/	-bis	.	.	.	.	.
=62	=62	=62	=62	=62	=62	=62	=62	=62	=62	=62	=62	=62	=62	=62	=62	=62	=62
4.A-/	2.rFF	(4.cc/	[4.e-\	.	4.A-\	.	.	4.e-\	.	.	4.cc\	pa-	.	2.r	.	.	.
4c/)	.	4g/))	4e-\]	.	4c\	.	.	4e-\	.	.	4g/	-cem	.	.	.	.	.
8r	.	8r	8r	.	8r	.	.	8r	.	.	8r	.	.	.	.	.	.
=63	=63	=63	=63	=63	=63	=63	=63	=63	=63	=63	=63	=63	=63	=63	=63	=63	=63
(<4.F/	2.rFF	(4.a-/	2.c\	.	4F\	.	.	4c\	.	.	4a-/	A-	.	2.r	.	.	.
.	.	.	.	.	8F\	.	.	8c\	.	.	8a-/	-gnus	.	.	.	.	.
4A-/	.	4cc/	.	.	4A-\	.	.	4c\	.	.	4cc\	de-	.	.	.	.	.
8F/	.	8a-/	.	.	8F\	.	.	8c\	.	.	8a-/	-i!	.	.	.	.	.
=64	=64	=64	=64	=64	=64	=64	=64	=64	=64	=64	=64	=64	=64	=64	=64	=64	=64
4.G/	2.rFF	8g/L	4.Bn\	.	4G\	.	.	4Bn\	.	.	8g/L	do-	.	2.r	.	.	.
.	.	8d/	.	.	.	.	.	.	.	.	8d/J	.	.	.	.	.	.
.	.	8g/J	.	.	8G\	.	.	8B\	.	.	8g/	-na	.	.	.	.	.
4.A-/)	.	4f/	4.c\	.	4A-\	.	.	4c\	.	.	4f/	no-	.	.	.	.	.
.	.	8e-/)	.	.	8A-\	.	.	8c\	.	.	8e-/	-bis	.	.	.	.	.
*	*	*v	*v	*	*	*	*	*	*	*	*	*	*	*	*	*	*
!!LO:PB:g=original
=65	=65	=65	=65	=65	=65	=65	=65	=65	=65	=65	=65	=65	=65	=65	=65	=65
4G/	2.rD	8e-/L	.	4G\	.	.	4B-\	.	.	8e-/L	do-	.	2.r	.	.	.
.	.	8g/	.	.	.	.	.	.	.	8g/J	.	.	.	.	.	.
8F/	.	8a-/J	.	8F\	.	.	8B-\	.	.	8a-/	-na	.	.	.	.	.
4G/	.	4b-/	.	4G\	.	.	4e-\	.	.	4b-/	no-	.	.	.	.	.
!LO:TX:b:color=green:t=CB	!	!	!	!	!	!	!	!	!	!	!	!	!	!	!	!
8E-/	.	8e-/	.	8E-\	.	.	8G/	.	.	8e-/	-bis	.	.	.	.	.
=66	=66	=66	=66	=66	=66	=66	=66	=66	=66	=66	=66	=66	=66	=66	=66	=66
*	*^	*	*	*	*	*	*	*	*	*	*	*	*	*	*	*
!LO:TX:b:i:t=ped.	!	!LO:TX:t=P:problem:błędne wyświetlanie łuku	!	!	!	!	!	!	!	!	!	!	!	!	!	!	!
[4.B- 4.E-/	2.rF	(4.BB-\	4.g 4.e-/	.	4E-\	.	.	4.B-\	.	.	4.g/	pa-	.	4r	.	.	.
.	.	.	.	.	8D\	.	.	.	.	.	.	.	.	8r	.	.	.
!	!	!	!	!	!	!	!	!	!	!	!	!	!	!LO:TX:a:t=tutti	!	!	!
4.B-] 4.D/	.	4.AA-\)	[4.b- 4.f/	.	4D\	.	.	4B-\	.	.	4f/	-cem	.	[4.b-\	do-	.	.
.	.	.	.	.	8r	.	.	8r	.	.	8r	.	.	.	.	.	.
*	*v	*v	*	*	*	*	*	*	*	*	*	*	*	*	*	*	*
=67	=67	=67	=67	=67	=67	=67	=67	=67	=67	=67	=67	=67	=67	=67	=67	=67
*	*	*^	*	*	*	*	*	*	*	*	*	*	*	*	*	*
!	!	!	!	!	!LO:TX:a:t=tutti	!	!	!LO:TX:a:t=tutti	!	!	!LO:TX:a:t=tutti	!	!	!	!	!	!
2.B-/	(2.G 2.GG\	8b-/L]	[2.e-\	mf	[4.G\	do-	.	[4.B-\	do-	.	[4.e-/	do-	.	8b-\L]	.	.	.
.	.	8cc/	.	.	.	.	.	.	.	.	.	.	.	8b-\J	.	.	.
.	.	8dd/J	.	.	.	.	.	.	.	.	.	.	.	8dd\	-na	.	.
.	.	4ee-/	.	.	4G\]	.	.	4B-\]	.	.	4e-/]	.	.	4ee-\	no-	.	.
.	.	8ee-/	.	.	8G\	-na	.	8B-\	-na	.	8e-/	-na	.	8ee-\	-bis	.	.
=68	=68	=68	=68	=68	=68	=68	=68	=68	=68	=68	=68	=68	=68	=68	=68	=68	=68
4.A-/	2.F 2.FF\	(4.ee-/	2.e-\]	.	4.F\	no-	.	4.A-\	no-	.	4.e-/	no-	.	4.ee-\	pa-	.	.
4.c/	.	4.a-/)	.	.	4.F\	-bis	.	4.c\	-bis,	.	4.e-/	-bis,	.	4a-/	-cem,	.	.
.	.	.	.	.	.	.	.	.	.	.	.	.	.	8r	.	.	.
=69	=69	=69	=69	=69	=69	=69	=69	=69	=69	=69	=69	=69	=69	=69	=69	=69	=69
4.F/	4.BB-\	4a-/	4.d\	.	4BB-/	do-	.	4F/	do-	.	4d/	do-	.	4a-/	do-	.	.
.	.	8g/	.	.	8BB-/	-na	.	8F/	-na	.	8d/	-na	.	8g/	-na	.	.
!	!	!	!	!	!LO:TX:a:t=c	!	!	!	!	!	!	!	!	!	!	!	!
4E-/	4.C\	4a-/	4e-\	.	4C/	no-	.	4E-/	no-	.	4e-/	no-	.	4a-/	no-	.	.
8c/	.	8ff/	8a-\	.	8C/	-bis	.	8c\	-bis	.	8a-/	-bis	.	8ff\	-bis	.	.
=70	=70	=70	=70	=70	=70	=70	=70	=70	=70	=70	=70	=70	=70	=70	=70	=70	=70
!	!	!	!	!	!LO:TX:t=P:problem:niepełna miara taktu	!	!	!	!	!	!	!	!	!	!	!	!
4.c-X/	4.D-X\	(4.ff/	2.a-\	.	(4D-X\	pa-	.	4.c-X\	pa-	.	2.a-/	pa-	.	4.ff\	pa-	.	.
.	.	.	.	.	8ryy	.	.	.	.	.	.	.	.	.	.	.	.
4B-/	4.Dn\	4.cc/)	.	.	4.Dn\)	.	.	4B-\	-cem	.	.	.	.	4b-\	-cem	.	.
8r	.	.	.	.	.	.	.	8r	.	.	.	.	.	8r	.	.	.
*v	*v	*	*	*	*	*	*	*	*	*	*	*	*	*	*	*	*
*	*v	*v	*	*	*	*	*	*	*	*	*	*	*	*	*	*
=71	=71	=71	=71	=71	=71	=71	=71	=71	=71	=71	=71	=71	=71	=71	=71
!	!	!	!	!	!	!	!	!	!	!	!	!LO:TX:a:t=Solo	!	!	!
4E-\)	2.b- 2.g 2.e-/	pp	4E-\	-cem.	.	2.r	.	.	4g/	-cem.	.	(4gg\	Ag-	.	.
8r	.	.	8r	.	.	.	.	.	8r	.	.	8ff\	.	.	.
4r	.	.	4r	.	.	.	.	.	4r	.	.	8ee-\L	.	.	.
.	.	.	.	.	.	.	.	.	.	.	.	8b-\J	.	.	.
8r	.	.	8r	.	.	.	.	.	8r	.	.	8cc\)	-nus	.	.
!!LO:LB:g=original
=72	=72	=72	=72	=72	=72	=72	=72	=72	=72	=72	=72	=72	=72	=72	=72
*^	*	*	*	*	*	*	*	*	*	*	*	*	*	*	*
!	!	!	!	!	!	!	!LO:TX:a:t=Solo	!	!	!	!	!	!	!	!	!
2.r	2.ryy	2.b- 2.f 2.d/	.	2.r	.	.	(4d\	ag-	.	2.r	.	.	4.dd\	De-	.	.
.	.	.	.	.	.	.	8c\	.	.	.	.	.	.	.	.	.
.	.	.	.	.	.	.	8B-/L	.	.	.	.	.	8dd\	-i	.	.
.	.	.	.	.	.	.	8F/J	.	.	.	.	.	8r	.	.	.
.	.	.	.	.	.	.	8A-/)	-nus	.	.	.	.	8f/	qui-	.	.
=73	=73	=73	=73	=73	=73	=73	=73	=73	=73	=73	=73	=73	=73	=73	=73	=73
*^	*	*	*	*	*	*	*	*	*	*	*	*	*	*	*	*
!	!	!	!	!	!	!	!	!LO:TX:t=P:problem:przepełniona miara taktu	!	!	!LO:TX:a:t=Solo	!	!	!	!	!	!
2.C/	4rc	2.rF	[4.g [>4.e-/	.	4r	.	.	4.G/	De-	.	(4ee-\	ag-	.	4.e-/	-tol-	.	.
.	2ryy	.	.	.	8r	.	.	.	.	.	8dd\	.	.	.	.	.	.
!	!	!	!	!	!	!	!	!LO:N:vis=4	!	!	!LO:TX:t=P:problem:mixedbeam	!	!	!	!	!	!
.	.	.	4g] 4e-/]	.	4.C/	qui	.	8E-/	-i	.	8cc\L	.	.	8e-/	-lis	.	.
.	.	.	.	.	.	.	.	8r	.	.	8g/J	.	.	8r	.	.	.
.	.	.	8f/	.	.	.	.	8e-\	qui	.	8a-X/)	-nus	.	8r	.	.	.
*v	*v	*	*	*	*	*	*	*	*	*	*	*	*	*	*	*	*
=74	=74	=74	=74	=74	=74	=74	=74	=74	=74	=74	=74	=74	=74	=74	=74	=74
*	*^	*^	*	*	*	*	*	*	*	*	*	*	*	*	*	*
4G/	2.GG/	2.rEE	4.r	2.e- 2.B-\	.	(4G\	tol-	.	4.e-\	tol-	.	4.b-\	De-	.	4r	.	.	.
8F/	.	.	.	.	.	8F\)	.	.	.	.	.	.	.	.	8r	.	.	.
!	!	!	!	!	!	!LO:TX:t=P:problem:mixedbeam	!	!	!	!	!	!	!	!	!	!	!	!
4.E-/	.	.	[<4.b-/	.	.	8E-\L	-lis	.	4e-\	-lis	.	8g\	-i	.	4.b-\	pec-	.	.
.	.	.	.	.	.	8BB-/J	.	.	.	.	.	8r	.	.	.	.	.	.
.	.	.	.	.	.	8E-\	pec-	.	8g\	pec-	.	8b-\	qui	.	.	.	.	.
*	*v	*v	*	*	*	*	*	*	*	*	*	*	*	*	*	*	*	*
=75	=75	=75	=75	=75	=75	=75	=75	=75	=75	=75	=75	=75	=75	=75	=75	=75	=75
*	*	*^	*	*	*	*	*	*	*	*	*	*	*	*	*	*	*
!LO:TX:t=P:problem:błędne wyświetlanie łuku	!	!	!	!	!	!	!	!	!	!	!	!	!	!	!	!	!	!
(<4.F 4.FF/	2.rF	4.cc/	4.c	8b-\L]	.	4.F\	-ca-	.	[4.f\	-ca-	.	8b-/	tol-	.	4.cc\	-ca-	.	.
.	.	.	.	8an\	.	.	.	.	.	.	.	8an/	-lis	.	.	.	.	.
.	.	.	.	8a-X\J	.	.	.	.	.	.	.	8a-X/	pec-	.	.	.	.	.
!	!	!	!	!LO:TX:t=P:problem:błędne wyświetlanie łuku	!	!	!	!	!	!	!	!	!	!	!	!	!	!
4.Bn 4.BBn/)	.	4dd/	4.ryy	(>8a-L 8f\	.	4.BBn/	-ta	.	8f\L]	.	.	8a-/L	-ca-	.	4dd\	.	.	.
.	.	.	.	8g\)	.	.	.	.	8d\J	.	.	8g/J	.	.	.	.	.	.
.	.	8ff/	.	8f\J	.	.	.	.	8d\	-ta	.	8f/	-ta	.	8ee-\	-ta	.	.
*	*	*v	*v	*	*	*	*	*	*	*	*	*	*	*	*	*	*	*
=76	=76	=76	=76	=76	=76	=76	=76	=76	=76	=76	=76	=76	=76	=76	=76	=76	=76
4.c 4.C/	2.r	(4ff/ 4a-/	4.ryy	.	4C/	[mun-	.	4c\	[mun-	.	4a-/	mun-	.	4ff\	mun-	.	.
.	.	8ee-/ 8g/)	.	.	8C/	-di	.	8c\	-di	.	8g/	-di	.	8ee-\	-di	.	.
4G 4GG/	.	8ee-/L	4b- (4f\	.	4G\	mi-	.	4e-\	mi-	.	4b-/	.	.	8ee-\L	mi-	.	.
.	.	8dd/	.	.	.	.	.	.	.	.	.	.	.	8dd\J	.	.	.
8A- 8AA-/	.	8cc/J	8a- 8f\)	.	8A-\	-se-	.	8e-\	-se-	.	8a-/	.	.	8cc\	-se-	.	.
=77	=77	=77	=77	=77	=77	=77	=77	=77	=77	=77	=77	=77	=77	=77	=77	=77	=77
*	*^	*	*	*	*	*	*	*	*	*	*	*	*	*	*	*	*
4.B-/	2.BB-/	2.rFF	4b- 4g 4e-/	4ryy	.	4B-\	-re-	.	4e-\	-re-	.	4g/	.	.	4b-\	-re-	.	.
.	.	.	16g/LL	8e-\	.	8BB-/	-re	.	8B-/	-re	.	8e-/	.	.	16g/LL	-re	.	.
.	.	.	16b-/JJ	.	.	.	.	.	.	.	.	.	.	.	16b-/JJ	.	.	.
4G/	.	.	(4b- 4c/	8ryy	.	4.BB-/	no]	.	(4G/	no]	.	(4c/	.	.	(4b-/	no-	.	.
.	.	.	.	4ryy	.	.	.	.	.	.	.	.	.	.	.	.	.	.
8F/	.	.	8a- 8d/)	.	.	.	.	.	8F/)	.	.	8d/)	.	.	8a-/)	.	.	.
*	*	*	*v	*v	*	*	*	*	*	*	*	*	*	*	*	*	*	*
!!LO:PB:g=original
=78	=78	=78	=78	=78	=78	=78	=78	=78	=78	=78	=78	=78	=78	=78	=78	=78	=78
4.B-/	[2.E-\	2.rFF	4g 4e-/	p	4E-\	.	.	4E-/	.	.	4e-/	.	.	8g/	-bis	.	.
.	.	.	.	.	.	.	.	.	.	.	.	.	.	8g/	a-	.	.
.	.	.	(>8e-/	.	8r	.	.	8r	.	.	8r	.	.	8a-/	-gnus	.	.
4.An/	.	.	4.c/	.	4r	.	.	4r	.	.	4r	.	.	8g/L	De-	.	.
.	.	.	.	.	.	.	.	.	.	.	.	.	.	8en/J	.	.	.
.	.	.	.	.	8r	.	.	8r	.	.	8r	.	.	8f/	-i	.	.
=79	=79	=79	=79	=79	=79	=79	=79	=79	=79	=79	=79	=79	=79	=79	=79	=79	=79
4.A-X/	2.E-\_	2.rFF	4.d 4.c-X/	.	2.r	.	.	2.r	.	.	2.r	.	.	8ff\L	do-	.	.
.	.	.	.	.	.	.	.	.	.	.	.	.	.	8ee-\J	.	.	.
.	.	.	.	.	.	.	.	.	.	.	.	.	.	8dd\	-na	.	.
4.G/	.	.	[4.e- 4.B-/	.	.	.	.	.	.	.	.	.	.	8ee-\L	no-	.	.
.	.	.	.	.	.	.	.	.	.	.	.	.	.	8gg\J	.	.	.
.	.	.	.	.	.	.	.	.	.	.	.	.	.	8ff\	-bis,	.	.
=80	=80	=80	=80	=80	=80	=80	=80	=80	=80	=80	=80	=80	=80	=80	=80	=80	=80
4.An 4.F#X/	2.E-\]	2.rFF	2.e-/])	.	2.r	.	.	2.r	.	.	2.r	.	.	8ee-\L	do-	.	.
.	.	.	.	.	.	.	.	.	.	.	.	.	.	8dd\J	.	.	.
.	.	.	.	.	.	.	.	.	.	.	.	.	.	8ff\	-na	.	.
!	!	!	!	!	!	!	!	!	!	!	!	!	!	!LO:TX:t=P:problem:mixedbeam	!	!	!
4B- 4G/	.	.	.	.	.	.	.	.	.	.	.	.	.	8ee-\L	no-	.	.
.	.	.	.	.	.	.	.	.	.	.	.	.	.	8g/J	.	.	.
8A-X 8F#/	.	.	.	.	.	.	.	.	.	.	.	.	.	8a-/	-bis	.	.
*	*v	*v	*	*	*	*	*	*	*	*	*	*	*	*	*	*	*
!!LO:TX:t=P:problem:3 skreślone takty
!!LO:LB:g=original
=81	=81	=81	=81	=81	=81	=81	=81	=81	=81	=81	=81	=81	=81	=81	=81	=81
*	*	*	*	*	*	*	*	*	*	*	*	*	*^	*	*	*
*	*	*	*	*	*	*	*	*	*	*	*	*	*	*	*^	*	*
!!LO:TX:a:color=red:t=J
!	!	!	!	!LO:TX:a:t=tutti	!	!	!LO:TX:a:t=tutti	!	!	!LO:TX:a:t=tutti	!	!	!LO:TX:a:t=tutti	!	!	!	!	!LO:DY:color=dodgerblue
!	!LO:TX:b:t=ped.	!	!	!	!	!LO:DY:color=dodgerblue	!	!	!LO:DY:color=dodgerblue	!	!	!LO:DY:color=dodgerblue	!	!	!	!	!	!
!	!	!	!	!	!	!	!	!	!	!	!	!	!LO:TX:t=P:problem:lyrics above	!	!	!	!	!
4.B- 4.G/	[2.BB-\	4.g 4.e-/	.	[2.BB-/	pa-	p	[2.B-\	pa-	p	4.e-/	pa-	p	2.b-/	4.g\	pa-	pa-	.	p
4.B-/	.	4f 4d/	.	.	.	.	.	.	.	4.d/	-cem	.	.	4.f\	-cem	.	.	.
.	.	8b-/	.	.	.	.	.	.	.	.	.	.	.	.	.	.	.	.
=82	=82	=82	=82	=82	=82	=82	=82	=82	=82	=82	=82	=82	=82	=82	=82	=82	=82	=82
*	*	*^	*	*	*	*	*	*	*	*	*	*	*	*	*	*	*	*
4.B-/	2.BB-\_	8g/	4e-\	p	2.BB-/]	.	.	(4.B-\]	.	.	(4g/	ag-	.	2.b-/	4e-\	do-	-cem	.	.
!	!	!	!	!LO:DY:a	!	!	!	!	!	!	!	!	!	!	!	!	!	!	!
.	.	8b-/L	.	mf	.	.	.	.	.	.	.	.	.	.	.	.	.	.	.
.	.	8a-/J	8r	.	.	.	.	.	.	.	8a-/	.	.	.	8r	.	.	.	.
4.A-/	.	8g/L	8ryy	.	.	.	.	4.A-/	.	.	4g/)	.	.	.	4r	.	.	.	.
.	.	8en/	4ryy	.	.	.	.	.	.	.	.	.	.	.	.	.	.	.	.
.	.	8f/J	.	.	.	.	.	.	.	.	8f/	-nus	.	.	8r	.	.	.	.
*	*	*	*	*	*	*	*	*	*	*	*	*	*	*	*	*v	*v	*	*
*	*	*v	*v	*	*	*	*	*	*	*	*	*	*	*v	*v	*	*	*
=83	=83	=83	=83	=83	=83	=83	=83	=83	=83	=83	=83	=83	=83	=83	=83	=83
*	*	*^	*	*	*	*	*	*	*	*	*	*	*	*	*	*
4.e- 4.G/	2.BB-\_	8ee-/L	4.ryy	.	2.BB-/	-cem	.	4.G/)	.	.	4.e-/	De-	.	2.b-\	-na,	.	.
.	.	8dd/	.	.	.	.	.	.	.	.	.	.	.	.	.	.	.
.	.	8cc/J	.	.	.	.	.	.	.	.	.	.	.	.	.	.	.
4.d 4.F/	.	8b-/L	[4.b-	.	.	.	.	4.F/	-cem	.	4.d/	-i	.	.	.	.	.
.	.	8bb-/	.	.	.	.	.	.	.	.	.	.	.	.	.	.	.
.	.	8aa-\J	.	.	.	.	.	.	.	.	.	.	.	.	.	.	.
=84	=84	=84	=84	=84	=84	=84	=84	=84	=84	=84	=84	=84	=84	=84	=84	=84	=84
4.c#X 4.En/	2.BB-\_	8gg/L	4.b-_	.	2.BB-/	do-	.	4.En/	do-	.	(4.c#X/	do-	.	[4.b-\	do-	.	.
.	.	8ff/	.	.	.	.	.	.	.	.	.	.	.	.	.	.	.
.	.	8gg/J	.	.	.	.	.	.	.	.	.	.	.	.	.	.	.
4.d 4.F/	.	8aa-/L	4b-]	.	.	.	.	4.F/	-na	.	4d/)	.	.	4b-\]	.	.	.
.	.	8ff/	.	.	.	.	.	.	.	.	.	.	.	.	.	.	.
.	.	8dd/J	8ryy	.	.	.	.	.	.	.	8f/	-na	.	8b-\	-na	.	.
*	*	*v	*v	*	*	*	*	*	*	*	*	*	*	*	*	*	*
=85	=85	=85	=85	=85	=85	=85	=85	=85	=85	=85	=85	=85	=85	=85	=85	=85
*	*	*^	*	*	*	*	*	*	*	*	*	*	*	*	*	*
!	!	!	!LO:TX:t=P:problem:poprawna wersja taktu wpisana u dołu taktu	!	!	!	!	!	!	!	!	!	!	!	!	!	!
(<8e-L 8G/	4BB-\]	2.b-/	8b-L 8g\	.	2.BB-/	-na!	.	4B-/	do-	.	8g/L	do-	.	8b-\L	do-	.	.
8B-/)	.	.	8a- 8f\	.	.	.	.	.	.	.	8f/J	.	.	8a-\J	.	.	.
8B-/J	8r	.	8gJ 8e-\	.	.	.	.	8B-/	-na	.	8e-/	-na	.	8g/	-na	.	.
!	!	!	!	!	!	!	!	!	!	!	!LO:TX:t=P:problem:przepełniona miara taktu	!	!	!	!	!	!
4B-/	4.BB-\	.	[4f 4d\	.	.	.	.	4B-/	no-	.	4d/	no-	.	4g/	no-	.	.
8A-/	.	.	8f\]	.	.	.	.	8B-/	-bis	.	8d/	-bis	.	8f/	-bis	.	.
=86	=86	=86	=86	=86	=86	=86	=86	=86	=86	=86	=86	=86	=86	=86	=86	=86	=86
4.G 4.BB-/	2.EE-^\	(8b-/L	4.e-	.	[2.E-\	pa	.	[2.E-/	pa-	.	[2.e-/	pa-	.	[2.e-/	pa-	.	.
.	.	8ee-/	.	.	.	.	.	.	.	.	.	.	.	.	.	.	.
.	.	8b-\J	.	.	.	.	.	.	.	.	.	.	.	.	.	.	.
4.F#X 4.E-/	.	4an/	8cL	.	.	.	.	.	.	.	.	.	.	.	.	.	.
.	.	.	8e-	.	.	.	.	.	.	.	.	.	.	.	.	.	.
.	.	8ryy	8cJ	.	.	.	.	.	.	.	.	.	.	.	.	.	.
=87	=87	=87	=87	=87	=87	=87	=87	=87	=87	=87	=87	=87	=87	=87	=87	=87	=87
4.G 4.BB-/	2.EE-^\	8b-/L	4.e-	.	2.E-\_	.	.	2.E-/_	.	.	2.e-/_	.	.	2.e-/_	.	.	.
.	.	8ee-/	.	.	.	.	.	.	.	.	.	.	.	.	.	.	.
.	.	8b-/J	.	.	.	.	.	.	.	.	.	.	.	.	.	.	.
4.F#X 4.E-/	.	4.an/	8cL	.	.	.	.	.	.	.	.	.	.	.	.	.	.
.	.	.	8e-	.	.	.	.	.	.	.	.	.	.	.	.	.	.
.	.	.	8cJ	.	.	.	.	.	.	.	.	.	.	.	.	.	.
=88	=88	=88	=88	=88	=88	=88	=88	=88	=88	=88	=88	=88	=88	=88	=88	=88	=88
*	*^	*	*	*	*	*	*	*	*	*	*	*	*	*	*	*	*
4.G/	4.BB-\	2.EE-^<\	4.b-/	8e-L	.	2.E-\_	.	.	2.E-/_	.	.	2.e-/_	.	.	2.e-/_	.	.	.
.	.	.	.	8B-	.	.	.	.	.	.	.	.	.	.	.	.	.	.
.	.	.	.	8e-J	.	.	.	.	.	.	.	.	.	.	.	.	.	.
4.FnX/	8C-X\L	.	4.an/	4.e-	.	.	.	.	.	.	.	.	.	.	.	.	.	.
.	8E-\	.	.	.	.	.	.	.	.	.	.	.	.	.	.	.	.	.
.	8C-\J	.	.	.	.	.	.	.	.	.	.	.	.	.	.	.	.	.
*	*v	*v	*	*	*	*	*	*	*	*	*	*	*	*	*	*	*	*
=89	=89	=89	=89	=89	=89	=89	=89	=89	=89	=89	=89	=89	=89	=89	=89	=89	=89
4.G 4.BB-/	2.EE-\	4.b-/	8e-L	.	2.E-\]	.	.	2.E-/]	.	.	2.e-/_	.	.	2.e-/_	.	.	.
.	.	.	8B-	.	.	.	.	.	.	.	.	.	.	.	.	.	.
.	.	.	8e-J	.	.	.	.	.	.	.	.	.	.	.	.	.	.
8C-/L	.	4.a-X/)	4.e-	.	.	.	.	.	.	.	.	.	.	.	.	.	.
8E-/	.	.	.	.	.	.	.	.	.	.	.	.	.	.	.	.	.
8C-/J	.	.	.	.	.	.	.	.	.	.	.	.	.	.	.	.	.
*	*	*v	*v	*	*	*	*	*	*	*	*	*	*	*	*	*	*
!!LO:PB:g=original
=90	=90	=90	=90	=90	=90	=90	=90	=90	=90	=90	=90	=90	=90	=90	=90	=90
!	!	!	!	!	!	!	!LO:TX:a:t=od Sopr	!	!	!LO:TX:a:t=od Sopr	!	!	!	!	!	!
[2.G/	2.E-\	(>2.g 2.e- 2.B-/	.	8E-'\	.	.	8E-yy/	-cem!	.	8e-yy/]	-cem!	.	8e-/]	-cem!	.	.
!	!	!	!	!	!	!LO:DY:a	!	!	!LO:DY:a	!	!	!LO:DY:a	!	!	!	!LO:DY:a
.	.	.	.	(8G'\	.	p	(yy8Gyy'/	a-	pyy	(yy8gyy'/	a-	pyy	(>8g'/	a-	.	p
.	.	.	.	8G'\	.	.	8Gyy'/	-gnus	.	8gyy'/	-gnus	.	8g'/	-gnus	.	.
.	.	.	.	8G'\	.	.	8Gyy'/	De-	.	8gyy'/	De-	.	8g'/	De-	.	.
.	.	.	.	8G'\	.	.	8Gyy'/	-i	.	8gyy'/	-i	.	8g'/	-i	.	.
.	.	.	.	8G'\)	.	.	8Gyy'/)yy	qui	.	8gyy'/)yy	qui	.	8g'/)	qui	.	.
=91	=91	=91	=91	=91	=91	=91	=91	=91	=91	=91	=91	=91	=91	=91	=91	=91
2.G/_	2.D\	2.f 2.Bn/	.	8.G^\	.	.	8.G^yy/	tol-	.	8.gyy^/	tol-	.	8.g^/	tol-	.	.
.	.	.	.	16G\	.	.	16Gyy/	-lis	.	16gyy/	-lis	.	16g/	-lis	.	.
.	.	.	.	8G\	.	.	8Gyy/	pec-	.	8gyy/	pec-	.	8g/	pec-	.	.
.	.	.	.	4G\	.	.	4Gyy/	-ca-	.	4gyy/	-ca-	.	4g/	-ca-	.	.
.	.	.	.	8G\	.	.	8Gyy/	-ta	.	8gyy/	-ta	.	8g/	-ta	.	.
=92	=92	=92	=92	=92	=92	=92	=92	=92	=92	=92	=92	=92	=92	=92	=92	=92
2.G/_	2.C\	2.e- 2.c/	.	(8G'\L	.	.	(yy>8Gyy'/	mun-	.	(yy>8gyy'/	mun-	.	(>8g'/	mun-	.	.
.	.	.	.	8G'\J)	.	.	8Gyy'/)	-di	.	8gyy'/)	-di	.	8g'/)	-di	.	.
.	.	.	.	8r	.	.	8ryy	.	.	8ryy	.	.	8r	.	.	.
.	.	.	.	4G\	.	.	4Gyy/	mi-	.	4gyy/	mi-	.	4g/	mi-	.	.
.	.	.	.	8G\	.	.	8Gyy/	-se-	.	8gyy/	-se-	.	8g/	-se-	.	.
=93	=93	=93	=93	=93	=93	=93	=93	=93	=93	=93	=93	=93	=93	=93	=93	=93
2.G/_	2.BB-\	2.d/	.	4G\	.	.	4Gyy/	-re-	.	4gyy/	-re-	.	4g/	-re-	.	.
.	.	.	.	8G\	.	.	8Gyy/	-re	.	8gyy/	-re	.	8g/	-re	.	.
.	.	.	.	4G\	.	.	4Gyy/	no-	.	4gyy/	no-	.	4g/	no-	.	.
.	.	.	.	8G\	.	.	8Gyy/	-bis!	.	8gyy/	-bis!	.	8g/	-bis!	.	.
=94	=94	=94	=94	=94	=94	=94	=94	=94	=94	=94	=94	=94	=94	=94	=94	=94
2.G] 2.EnX/	2.AAn\	2.c#X/	.	8r	.	.	8ryy	.	.	8ryy	.	.	8r	.	.	.
.	.	.	.	(8G'\	.	.	(yy>8Gyy'/	a-	.	(yy>8gyy'/	a-	.	(>8g'/	a-	.	.
.	.	.	.	8G\	.	.	8Gyy'/	-gnus	.	8gyy'/	-gnus	.	8g'/	-gnus	.	.
.	.	.	.	8G'\	.	.	8Gyy'/	De-	.	8gyy'/	De-	.	8g'/	De-	.	.
.	.	.	.	8G'\	.	.	8Gyy'/	-i	.	8gyy'/	-i	.	8g'/	-i	.	.
.	.	.	.	8G'\)	.	.	8Gyy'/)	qui	.	8gyy'/)yy	qui	.	8g'/)	qui	.	.
!!LO:LB:g=original
=95	=95	=95	=95	=95	=95	=95	=95	=95	=95	=95	=95	=95	=95	=95	=95	=95
2.G/	2.E-X\	2.cn/	.	8.G^\	.	.	8.Gyy/	tol-	.	8.gyy/	tol-	.	8.g/	tol-	.	.
.	.	.	.	16G\	.	.	16Gyy/	-lis	.	16gyy/	-lis	.	16g/	-lis	.	.
.	.	.	.	8G\	.	.	8Gyy/	pe-	.	8gyy/	pe-	.	8g/	pe-	.	.
.	.	.	.	4G\	.	.	4Gyy/	-ca-	.	4gyy/	-ca-	.	4g/	-ca-	.	.
.	.	.	.	8G\	.	.	8Gyy/	-ta	.	8gyy/	-ta	.	8g/	-ta	.	.
=96	=96	=96	=96	=96	=96	=96	=96	=96	=96	=96	=96	=96	=96	=96	=96	=96
2.G/	2.D\	[>4.B-/	.	8G\	.	.	8G/	.	.	8g/	.	.	8g/	mun-	.	.
.	.	.	.	8G\	.	.	8G/	.	.	8g/	.	.	8g/	-di	.	.
.	.	.	.	8r	.	.	8r	.	.	8r	.	.	8r	.	.	.
.	.	4B-/])	.	4G\	.	.	4G/	.	.	4g/	.	.	4g/	mi-	.	.
.	.	8g/	.	8E-\	.	.	8G/	.	.	8B-/	.	.	8g/	-se-	.	.
=97	=97	=97	=97	=97	=97	=97	=97	=97	=97	=97	=97	=97	=97	=97	=97	=97
(2.c-X 2.A- 2.D/	2.DD\	[4.g/	.	2.D^\	.	.	2.A-^/	.	.	2.c-X^/	.	.	([>4.g^/	-re-	.	.
.	.	4g/]	.	.	.	.	.	.	.	.	.	.	4g/]	.	.	.
.	.	8f/	.	.	.	.	.	.	.	.	.	.	8f/)	.	.	.
=98	=98	=98	=98	=98	=98	=98	=98	=98	=98	=98	=98	=98	=98	=98	=98	=98
4.B- 4.G 4.E-/)	4EE-\	4e-/	.	4E-\	.	.	4G/	.	.	4B-/	.	.	4e-/	-re!	.	.
.	8rFF	8r	.	8r	.	.	8r	.	.	8r	.	.	8r	.	.	.
!	!	!	!	!	!	!	!	!	!LO:DY:a	!	!	!LO:DY:a	!	!	!	!LO:DY:a
(<4E-/	4rFF	(4e-/	.	4E-\	.	.	4E-/	.	<	4e-/	.	<	4e-/	do-	.	<
!	!	!	!	!	!	!LO:DY:a	!	!	!	!	!	!	!	!	!	!
8G/	8rFF	8g/	.	8G\	.	<	8G/	.	.	8g/	.	.	8g/	-na	.	.
=99	=99	=99	=99	=99	=99	=99	=99	=99	=99	=99	=99	=99	=99	=99	=99	=99
4B-/	2.r	4b-/	.	4B-\	.	.	4B-/	.	.	4b-/	.	.	4b-\	do-	.	.
8G/	.	8g/	.	8G\	.	.	8G/	.	.	8g/	.	.	8g\	-na	.	.
4e-/)	.	4ee-/)	.	4e-\	.	.	4e-\	.	.	4e-/	.	.	4ee-\	no-	.	.
8B-/	.	8b-/	.	8B-\	.	[	8B-\	.	[	8b-/	.	[	8b-\	-bis	.	[
=100	=100	=100	=100	=100	=100	=100	=100	=100	=100	=100	=100	=100	=100	=100	=100	=100
*	*	*^	*	*	*	*	*	*	*	*	*	*	*	*	*	*
!LO:TX:b:i:t=ped.	!	!	!	!	!	!	!	!	!	!	!	!	!	!	!	!	!
2.e- [2.B- 2.G/	[2.E-\	([2.gg 2.ee-/	2.b- [2.g\	.	[2.e-\	.	.	[2.g [2.e-\	.	.	[2.b-\	.	.	[2.gg\	pa-	.	.
=101	=101	=101	=101	=101	=101	=101	=101	=101	=101	=101	=101	=101	=101	=101	=101	=101	=101
2.B-/]	2.E-\]	4gg/]	2.g\]	.	2.e-\]	.	.	2.g\] 2.e-\]	.	.	2.b-\]	.	.	2.gg\]	.	.	.
.	.	8ee-/	.	.	.	.	.	.	.	.	.	.	.	.	.	.	.
.	.	4b-/	.	.	.	.	.	.	.	.	.	.	.	.	.	.	.
.	.	8g/)	.	.	.	.	.	.	.	.	.	.	.	.	.	.	.
=102	=102	=102	=102	=102	=102	=102	=102	=102	=102	=102	=102	=102	=102	=102	=102	=102	=102
2.G 2.BB-;/	2.EE-\	2.e-;/	2.ryy	.	2.E-;\	.	.	2.G;/	.	.	2.B-;/	.	.	2.e-;/	-cem.	.	.
*v	*v	*	*	*	*	*	*	*	*	*	*	*	*	*	*	*	*
*	*v	*v	*	*	*	*	*	*	*	*	*	*	*	*	*	*
==	==	==	==	==	==	==	==	==	==	==	==	==	==	==	==
*-	*-	*-	*-	*-	*-	*-	*-	*-	*-	*-	*-	*-	*-	*-	*-
!!!system-decoration: [(g1{s5,s6})]
!!!RDF**kern: > = above
!!!RDF**kern: < = below
!!!RDF**kern: @ = marked note, color=dodgerblue
!!!AIN: 1 alto 1 empty 1 organ 1 soprn 1 tenor
!!!ENC: Kamil Watkowski
!!!END: 2021-07-12
